X:228
T:McFadden's Handsome Daughter
Z: id:dc-reel-209
M:C
L:1/8
K:G Major
D3E G2BG|AGAB dBAG|D3E G2ge|dBAc BGG2:|!
gdBd efge|dcBG AGEG|gdBd efge|dcBA GABd|!
gdBd gdBG|A3B AGEG|gfed efge|dcBA GABc|]!
d3e dBB2|dBgB aAA2|Bdef gdBG|DEGc BGGB|!
d3e dBB2|dBgB aAA2|Bdef g3e|d2Bd gdBG|]!

